**kern	**kern	**dynam
*part1	*part1	*part1
*staff2	*staff1	*
*I"Piano	*	*
*clefF4	*clefG2	*
*k[f#c#g#d#]	*k[f#c#g#d#]	*
=1	=1	=1
!	!LO:TX:a:B:t=Un peu moins vite	!
8EEE 8EE	8e 8g#X 8b 8ee	f
8r	8r	.
8r	8r	.
4.EE 4.BB	(4.G#	pp
=	=	=
4.EE 4.BB	4.e 4.g#	.
4.EE 4.BB	4.d# 4.f#	.
=	=	=
4.EE 4.BB	4.c# 4.e	.
4.EE 4.BB	4.B 4.d#	.
=	=	=
4.EE 4.BB	4.A 4.c#	.
4.EE 4.BB	4.G# 4.B	.
=	=	=
4.EE 4.BB	4.F#) 4.A	.
4.EE 4.BB	(4.A	.
=	=	=
4.EE 4.BB	4.f# 4.a	.
4.EE 4.BB	4.e 4.g#	.
=	=	=
4.EE 4.BB	4.d# 4.f#	.
4.EE 4.BB	4.c# 4.e	.
=	=	=
*-	*-	*-
!!!system-decoration: {(s1,s2)}
